X: 1491
T: Nihâvent Sazsemâîsi
C: Mesut Cemil
O: Turkey
F: http://compmusic.upf.edu/node/140
N: nihavent--sazsemaisi--aksaksemai----mesut_cemil
N: makam= nihavent
N: form= sazsemaisi
N: usul= aksaksemai = 10/8
M: 10/8
L: 1/16
K: C _B _e  
Q: 1/4=120
%%MIDI tuningsystem comma53
G3/2A/Bc ded3cBA G^FG4z2  | dedc BAG2 z2de/f/ g/a/b/c'/d'4z2  | 
w:  1. HANE   |   | 
D=EFE FGD2 z2ed c=Bc4z2  | DEGF EDC2 z2ed cBA4z2  | 
w:   |   | 
ded^c dD^FA =cBAc edd4z2  | G3/2A/Bc ded3cBA G^FG4z2  | 
w:   |   | 
bagf edc3/2=B/ cde3/2d/ cBA4z2  | \
w:     TESLİM   | 
fedc BAG3/2^F/ GAc3/2B/ AGF4z2  | 
w:   | 
G3B AcBd ced^f egfa gbaf  | ageg ^fdfe cedB dcB4AG  | 
w:   |   | 
b4 agg2 fee2 dcc4BA  | G3e/d/ d^cd2 zABG A^FG4z2  | 
w:   |   | 
GABc _7/8d_1/4efg fe=dc BAG4z2  | \
w:  2. HANE   | 
gaba g2d_1/4e d2cd c2de d2e2  | 
w:   | 
f_7/8gf2 g2gf2gf3/2_1/4e/ def4z2  | \
w:   | 
cd_1/4ef _7/8gabc' bagf _ede4d2  | 
w:   | 
DEFG ABcd efga bc'd'4z2  | ABcA BGAF GEFD ECD4z2  | 
w:   |   | 
bagf edc3/2=B/ cde3/2d/ cBA4z2  | \
w:     TESLİM   | 
fedc BAG3/2^F/ GAc3/2B/ AGF4z2  | 
w:   | 
G3B AcBd ced^f egfa gbaf  | ageg ^fdfe cedB dcB4AG  | 
w:   |   | 
b4 agg2 fee2 dcc4BA  | G3e/d/ d^cd2 zABG A^FG4z2  | 
w:   |   | 
=b^abc' bag^f =e^def gabc' bab2  | \
w:  3. HANE   | 
g^f=e2 e^dc=B cde2 dcB^A BcB2  | 
w:   | 
G_1/4Bdc Bcd3_7/8edc Bcd4z2  | _1/4Bd^f_7/8e d2f3gfe dfe4d2  | 
w:   |   | 
d_7/8e^fg abc'd' e'd'c'b agfe dcd2  | \
w:   | 
b3/2a/ga gff3_1/4ee/d/e/f/ _edd4z2  | 
w:   | 
bagf edc3/2=B/ cde3/2d/ cBA4z2  | \
w:     TESLİM   | 
fedc BAG3/2^F/ GAc3/2B/ AGF4z2  | 
w:   | 
G3B AcBd ced^f egfa gbaf  | ageg ^fdfe cedB dcB4AG  | 
w:   |   | 
b4 agg2 fee2 dcc4BA  | G3e/d/ d^cd2 zABG A^FG4z2  | 
w:   |   | 
z14  | D4G4B2A2G2  | ^F2G2A2F2G4z2  | G4c4e2d2c2  | \
w:  |  4. HANE   |   |   | 
=B2c2d2B2c4z2  | 
w:   | 
c'4=b2c'2e'2d'2c'2  | b4a2b2d'2c'2b2  | \
w:   |   | 
a4g2a2c'2b2a2  | g2a2b2c'2d'4z2  | 
w:   |   | 
c'4=b2c'2e'2d'2c'2  | b4a2b2d'2c'2b2  | \
w:   |   | 
a4g2a2c'2b2a2  | g6^f2g4z2  | 
w:   |   | 
f4_1/4e2f2_7/8a2g2f2  | e4d2e2g2f2e2  | \
w:   |   | 
d4^c2d2f2e2d2  | c4c2=B2c4z2  | 
w:   |   | 
c4=B2c2e2d2c2  | B4A2B2d2c2B2  | A4G2A2c2B2A2  | \
w:   |   |   | 
G6^F2G4z2  | 
w:   | 
G2A2B2c2_7/8d2_1/4e2f2  | g2f2_1/4e2_7/8d2c4B2  | \
w:   |   | 
A2B2c2B2A4G2  | G6^F2G4z2  | 
w:   |   | 
G2A2B2c2_7/8d2_1/4e2f2  | g2f2_1/4e2_7/8d2c4B2  | \
w:   |   | 
A2B2c2B2A4G2  | G6^F2G4z2  | 
w:   |   | 
^C2D2D2D2^F2G2G2  | ^A2=B2B2B2^c2d2d2  | \
w:   |   | 
^f2g2g2g2^a2_1/4b2b2  | 
w:   | 
c'3=b^a2c'2b4z2  | ^a2=b2c'2b2a4g2  | \
w:   |   | 
^f2g2^a2g2f4=e2  | ^d2=e2f2e2=d4c2  | 
w:   |   | 
=B4B2^A2B4z2  | ^F2G2G2G2^A2B2B2  | ^c2d2d2d2^f2g2g2  | \
w:   |   |   | 
g2f2=e2d2^c4B2  | 
w:   | 
d2^c2B2A2G4z2  | ^C2D2D2D2^F2G2G2  | \
w:   |   | 
^A2=B2B2B2^c2d2d2  | ^f2g2g2g2^a2_1/4b2b2  | 
w:   |   | 
c'3=b^a2c'2b4z2  | ^a2=b2c'2b2a4g2  | \
w:   |   | 
^f2g2^a2g2f4=e2  | ^d2=e2f2e2=d4c2  | 
w:   |   | 
=B4B2^A2B4z2  | ^F2G2G2G2^A2B2B2  | ^c2d2d2d2^f2g2g2  | \
w:   |   |   | 
g2f2=e2d2^c4B2  | 
w:   | 
d2^c2B2A2G4z2  | D4G4B2A2G2  | F2G2A2^F2G4z2  | \
w:   |   |   | 
G4c4e2d2c2  | 
w:   | 
=B2c2d2B2c4z2  | c'4=b2c'2e'2d'2c'2  | \
w:   |   | 
b4a2b2d'2c'2b2  | a4g2a2c'2b2a2  | 
w:   |   | 
g2a2b2c'2d'4z2  | c'4=b2c'2e'2d'2c'2  | \
w:   |   | 
b4a2b2d'2c'2b2  | a4g2a2c'2b2a2  | 
w:   |   | 
g6^f2g4z2  | f4=e2f2_7/8a2g2f2  | e4d2e2g2f2e2  | \
w:   |   |   | 
d4^c2d2f2e2d2  | 
w:   | 
c4c2=B2c4z2  | c4=B2c2e2d2c2  | B4A2B2d2c2B2  | \
w:   |   |   | 
A4G2A2c2B2A2  | 
w:   | 
G6^F2A4z2  | f4=e2f2_7/8a2g2f2  | e4d2e2g2f2e2  | \
w:   |   |   | 
d4^c2d2f2e2d2  | 
w:   | 
c4c2=B2c4z2  | c4=B2c2e2d2c2  | B4A2B2d2c2B2  | \
w:   |   |   | 
A4G2A2c2B2A2  | 
w:   | 
G6^F2A4z2  | D4G4B2A2G2  | ^F2G2A2F2G4z2  | \
w:   |   |   | 
G4c4e2d2c2  | =B2c2d2B2c4z2  | 
w:   |   | 
d2e2^f2d2e4z2  | ^f2g2a2f2g4z2  | a2b2c'2a2b4z2  | \
w:   |   |   | 
c'2d'2e'2c'2d'4z2  | 
w:   | 
d14  | a14  | d'14  | z20  | bagf edc3/2=B/ cde3/2d/ cBA4z2  | \
w:   |   |   |  |     TESLİM   | 
fedc BAG3/2^F/ GAc3/2B/ AGF4z2  | 
w:   | 
G3B AcBd ced^f egfa gbaf  | ageg ^fdfe cedB dcB4AG  | 
w:   |   | 
b4 agg2 fee2 dcc4BA  | G3e/d/ d^cd2 zABG A^FG4z2  | 
w:   |   | 
|


